X: 1
P: Maggie Lauder
C: Scottish song, from Barbara McOwen/SRSNH
C: arr. T. Traub 2/23/98, rev 7/8/99
L: 1/4
M: 4/4
R: Reel
K: G
D|"G"G > A G B|"Em"G > A G B|"Am"A > B c/B/A/G/|"D7"F A2 c|"G"B G G D|"Em"G > A G B|"C"d> e "D"d c|"G"B d2 "G7"B ||
"C"c> d c e|"G"B> c B d|"Am"A > B "C"c/B/A/G/|"D"F A2 F|"G"G D E B,|"C"C < B, "D"A, c|"G"B <d "D"A B|"G"G2 G |]
